X: 1774
T: Ora Banda Schottische
B: australian traditional tunes wiki
M:4/4
L:1/8
R: Schottische
Q: 1/4=100
K:D
V:1 
||"D"d2d>c "G"B2B2|"A7"A>B A<F "D"D2D2|"A7"B>A (3GFE C2C2|B>A (3GFE "D"D2D2|
d2d>c "G"B2B2|"A7"A>B A<F "D"D2D2|"A7"B>A (3GFE C2F>E|"D"D2D2D2F>A|
d2d>c "G"B2c2|"D"d>c d>fF2F2|"G"G>F G>F "A7"E2F>G|"D"A>G A>B "A7"A2A2|
"D"d2d>c "G"B2c2|"D"d>c d>fF2F2|"G"G>F G>F "A7"E2F>E|"D"D2D2D2z2||
% abcbook-tune_id 6342d53afb37c738298a44ef


% abcbook-boost 0
% abcbook-tablature 
% abcbook-transpose 
% abcbook-lastupdated 1665324383004
% abcbook-soundfonts 
% abcbook-repeats 1
% NFF Book 2014

